remix/Device/smartphone-fill.svg

<svg viewBox="0 0 24 24" fill="currentColor" xmlns="http://www.w3.org/2000/svg"><path d="M6 2H18C18.5523 2 19 2.44772 19 3V21C19 21.5523 18.5523 22 18 22H6C5.44772 22 5 21.5523 5 21V3C5 2.44772 5.44772 2 6 2ZM12 17C11.4477 17 11 17.4477 11 18C11 18.5523 11.4477 19 12 19C12.5523 19 13 18.5523 13 18C13 17.4477 12.5523 17 12 17Z"/></svg>

<svg viewBox="0 0 24 24" xmlns="http://www.w3.org/2000/svg"><path fill="none" d="M0 0h24v24H0Z"/><path d="M6 2h12v0c.55 0 1 .44 1 1v18 0c0 .55-.45 1-1 1H6v0c-.56 0-1-.45-1-1V3v0c0-.56.44-1 1-1Zm6 15v0c-.56 0-1 .44-1 1 0 .55.44 1 1 1v0c.55 0 1-.45 1-1 0-.56-.45-1-1-1Z"/></svg>
